X:1
T:Serenata napulitana
T:Serenata napulitana
T:Mario Pasquale Costa
T:Salvatore Di Giacomo
T:Catarí’, Catarí’, mm’hê lassato… tutto ‘nzieme st’ammore è fernuto, tutto ‘nzieme t’hê scívete a n’ato, mm’hê ‘nchiantato e mm’hê ditto: bonní! E a chist’ato ca tu mo vuó’ bene, staje penzanno e, scetata, ll’aspiette… ma chist’ato, stasera, nun vène… e maje cchiù, t”o ddich’io, venarrá!…
T:No, nun vène, nun vène… Ll’aggio visto p”a strada, cammená, core a core, cu n’ata… e, redenno, parlavano ‘e te… Tu si’ stata traduta… Tu si’ stata lassata… Tu si’ stata ‘nchiantata… pure tu…pure tu!…
C:Mario Costa
Z:Salvatore Di Giacomo
%%score 1 { ( 2 5 ) | ( 3 4 ) }
L:1/8
M:6/8
K:C
V:1 treble-8 nm="Chitarra classica"
V:2 treble nm="Piano"
V:5 treble 
V:3 bass 
V:4 bass 
V:1
 z2 z |:[Q:1/4=55]"^Andantino" z2 z | z6 | z6 | z6 | z6 | z6 | z6 | z6 | z2 z z G A | %10
w: |||||||||Dim\- me|
{AB} A G F E D C | E2 E- E (E F) | G G G{GA} G F E | (E/D/ D2) D3- | D2 z z (A B) | %15
w: dim\- mea chi pien\- zeas\- se\-|ta\- ta * so\- la|sola ad\- de\- re\- toa sti|llas _ _ stre?|* 'Nfac\- ci''o|
{Bc} B A G F E D | F2 F- F D F | E D C{CD} C B, C | G6- | G2 z z G A |{AB} A G F E D C | %21
w: mu\- ro'e rim\- pet\- to, stam\-|pa\- ta * ve\- co|'n'om\- bra eche\- st'om\- bra si|tu!|_ Fre\- scaèa|not\- tee na lu\- na d'ar\-|
 E2 E- E E F | G G G{GA} G F E | (E/D/- D2) D3- | D2 z z (A B) |{Bc} B A G F E D | F2 F- F (D F) | %27
w: gien\- to * sa\- glie|'ncie\- loe cchiù ghian\- caad\- de\-|ven _ _ ta|* e nu|scia\- to, ogne tan\- to d''o|vien\- to * 'miez\- z'a|
 E D C C D B, | C3- C z z | z2 z[Q:3/8=48] c2 d | e3 d2 c | B3{B} B2 c | d3 c2 B | %33
w: st'a\- ria se sen\- te'e pas\-|sà *|Ah, che|not\- te, che|notte! Ma pec\-|ché nun t'af\-|
 A2 A- A!mf! (G A) | (B A G) (G A B) | (A/B/A/G/) F- F G A | B A G G A B | G3!f! c2 d | e3 d2 c | %39
w: fac\- ce? * Ma pec\-|ché ma pec\- ché mme ne|cacce, Ca\- ta\- rì, * * sen\- za|man\- co pu\- ter\- te par\-|là? Ma ce|sta nu des\-|
 B2 B B2 c | d3 c2 B | A2 A A2 B | c3 A2 B | G2 G F2 A |"^rall." E3[Q:3/8=40] D2- D/ C/ | C2 z :| %46
w: ti\- no, eio ce|cre\- doe ce|spe\- ro, Ca\- ta\-|ri' nun èo|ve\- ro, tu cun\-|ten\- ta * nun|si'-|
[Q:3/8=55] e2 d | c3 d2 B |{/B} A3 B2 G |{/G} F3 E2 D | G3 e2 d |{/d} c3 d2 B |{/B} A3 B2 G | %53
w: Ca\- ta\-|rì, Ca\- ta\-|rì. tu cun\-|ten\- ta nun|sì, Ca\- ta\-|rì. Ca\- ta\-|rì. tu cun\-|
{/G} F3 E2 D | C2 z z z2 |] %55
w: ten\- ta nun|sì!|
V:2
 z2 z |: e/e/!p!e/e/d/d/ |{/d} c/c/c/c/c/c/ d/d/d/d/B/B/ |{/B} A/A/A/A/A/A/ B/B/B/B/G/G/ | %4
{/G} F/F/F/F/F/F/ E/E/E/E/D/D/ |!<(! G/G/A/B/c/d/!<)! e/e/e/e/d/d/ | %6
!<(!{/d} c/F/G/A/B/c/!<)! d/d/d/d/B/B/ |!<(!{/B} A/C/E/F/G/A/!<)! B/B/B/B/G/G/ | %8
"_poco rall."{/G} F/F/F/F/F/F/ E/E/E/E/D/D/ | C [G,CE][G,CE] z [G,CE][G,CE] | %10
 z [G,CE][G,CE] z [G,CE][G,CE] | [G,CE][G,CE] z [G,CE][G,CE] z | [G,CE][G,CE] z [G,CE][G,CE] z | %13
 z [A,D][A,D] z [A,D][A,D] | z [A,D][A,D] z [A,D][A,D] | z [A,DF][A,DF] z [A,DF][A,DF] | %16
 z [_A,CF][A,CF] z [A,CF][A,CF] | z [G,CE][G,CE] z [CD][CD] | z [G,CDG][G,CDG] z [G,B,DG][G,B,DG] | %19
 z [A,CFG][A,CFG] z [G,B,FG][G,B,FG] | z [G,CE][G,CE] z [G,CE][G,CE] | %21
 z [G,CE][G,CE] z [G,CE][G,CE] | z [G,CE][G,CE] z [G,CE][G,CE] | z [A,D][A,D] z [A,D][A,D] | %24
 z [A,D][A,D] z [A,D][A,D] | z [A,DF][A,DF] z [A,DF][A,DF] | z [_A,DF][A,DF] z [A,DF][A,DF] | %27
 z [A,E][A,E] z DB, |[I:staff +1] [E,G,C]/[I:staff -1] E/G/c/G/E/ z/[I:staff +1] E,/G,/C/G,/E,/ | %29
[I:staff -1] z/ (F/G/c/G/E/) z/[I:staff +1] (E,/G,/C/G,/E,/) | %30
[I:staff -1] z/ (F/G/c/G/E/) z/[I:staff +1] (E,/G,/C/G,/E,/) | %31
[I:staff -1] z/ (F/G/B/G/E/) z/[I:staff +1] (F,/G,/B,/G,/F,/) | %32
[I:staff -1] z/ (F/G/B/G/E/) z/[I:staff +1] (F,/G,/B,/G,/F,/) | %33
[I:staff -1] z/ (F/G/A/G/E/) z[I:staff +1] [G,,E,G,][A,,E,G,] | %34
 !>![B,,E,B,]!>![A,,E,A,]!>![G,,E,G,] !>![G,,E,G,]!>![A,,E,A,]!>![B,,E,B,] | %35
 !>![F,A,]/B,/A,/G,/F,[I:staff -1] z[I:staff +1] !>![G,,F,G,]!>![A,,F,A,] | %36
 !>![B,,^D,B,]!>![A,,D,A,]!>![G,,D,G,] !>![G,,D,G,]!>![D,A,]!>![D,B,] | %37
 [E,G,C]/[I:staff -1] (E/G/c/G/E/) z/[I:staff +1] (E,/G,/C/G,/E,/) | %38
[I:staff -1] z/ (E/G/c/G/E/) z/[I:staff +1] (E,/G,/C/G,/E,/) | %39
[I:staff -1] z/ (F/^G/B/G/F/) z/[I:staff +1] (F,/^G,/B,/G,/F,/) | %40
[I:staff -1] z/ (D/F/^G/F/D/) z/[I:staff +1] (D,/F,/^G,/F,/D,/) | %41
[I:staff -1] z/ (C/E/A/E/C/) z/[I:staff +1] (C,/E,/A,/E,/C,/) | %42
[I:staff -1] z/ (E/A/c/A/E/) z/[I:staff +1] (E,/A,/C/A,/E,/) | %43
[I:staff -1] z/ (C/E/B/E/C/) z/ (A,/D/F/D/A,/) | %44
 z/[I:staff +1] G,/A,/[I:staff -1][CE]/[I:staff +1]A,/G,/[I:staff -1] z/[I:staff +1] F,/G,/[I:staff -1][B,D]/[I:staff +1]G,/F,/ | %45
 [E,C]2[I:staff -1] z :|!f! e/e/e/e/d/d/ |{/d} c/c/c/c/c/c/ d/d/d/d/B/B/ | %48
{/B} A/A/A/A/A/A/ B/B/B/B/G/G/ |{/G} F/F/F/F/F/F/ E/E/E/E/D/D/ | %50
!<(! G/G/A/B/c/d/!<)! e/e/e/e/d/d/ |!<(!{/d} c/F/G/A/B/c/!<)! d/d/d/d/B/B/ | %52
!<(!{/B} A/C/E/F/G/A/!<)! B/B/B/B/G/G/ |"_poco rall."{/G} F/F/F/F/F/F/ E/E/E/E/D/D/ | %54
 C z z !^![cegc'] z z |] %55
V:3
 z2 z |: E,,[E,^G,C][E,G,C] | F,,[F,A,C][F,A,C] D,[F,A,D][F,A,D] | %3
 G,,[E,G,C][E,G,C] G,,[E,G,C][E,G,C] | D,, [F,A,D][F,A,D] G,,[F,G,B,][F,G,B,] | %5
 C,[E,G,C][E,G,C] E,,[E,^G,C][E,G,C] | F,,[F,A,C][F,A,C] D,[F,A,D][F,A,D] | %7
 G,,[E,G,C][E,G,C] G,,[E,G,C][E,G,C] | D,,[F,A,D][F,A,D] G,,[F,G,B,][G,,F,] | [C,E,] z z G,, z2 | %10
 C, z z G,, z2 | C, z z G,, z2 | E, z z A,, z z | D, z z A,, z z | D, z z A,, z z | D, z z A,, z2 | %16
 D, z z D,, z z | G,, z z A,, z z | G,, z z G,,, z z | G,, z z G,,, z z | C,, z z G,, z z | %21
 C, z z G,, z z | E, z z A,, z2 | D, z z A,, z z | D, z z A,, z z | D, z z A,, z2 | D, z z D,, z2 | %27
"^col canto" G,, z z A,,, z z | (C,,3 G,,,3) | (C,,3 G,,,3) | (C,,3 G,,,3) | (C,,3 G,,,3) | %32
 (C,,3 G,,,3) | (C,,3 G,,,3) | (C,,3 G,,,3) | ([D,,A,,]/B,,/A,,/G,,/F,,) (G,,,3 | G,,) z z G,,,3 | %37
 (C,,3"^col canto" G,,,3) | (C,,3"^col canto" G,,,3) | (D,,3 D,3) | D,,3 E,,,3 | (F,,3 E,,,3) | %42
 (^F,,3 ^F,,,3) | (G,,3 D,,3) |"^rall." G,,3 G,,,3 | C,,/"^tempo"G,,/C,/E,/C,/G,,/ :| %46
 E,,[E,^G,C][E,G,C] | F,,[F,A,C][F,A,C] D,[F,A,D][F,A,D] | G,,[E,G,C][E,G,C] G,,[E,G,C][E,G,C] | %49
 D,, [F,A,D][F,A,D] G,,[F,G,B,][F,G,B,] | C,[E,G,C][E,G,C] E,,[E,^G,C][E,G,C] | %51
 F,,[F,A,C][F,A,C] D,[F,A,D][F,A,D] | G,,[E,G,C][E,G,C] G,,[E,G,C][E,G,C] | %53
 D,,[F,A,D][F,A,D] G,,2 [G,,,G,,] | [C,,G,,] z z !^![C,,G,,] z z |] %55
V:4
 x3 |: x3 | x6 | x6 | x6 | x6 | x6 | x6 | x6 | x6 | x6 | x6 | x6 | x F,F, x F,F, | x F,F, x F,F, | %15
 x6 | x6 | x4 ^F,F, | x6 | x6 | x6 | x6 | x6 | x F,F, x F,F, | x F,F, x F,F, | x6 | x6 | %27
 x G,G, x [F,G,][F,G,] | x6 | x6 | x6 | x6 | x6 | x6 | x6 | x6 | x6 | x6 | x6 | x6 | x6 | x6 | x6 | %43
 x6 | x6 | x3 :| x3 | x6 | x6 | x6 | x6 | x6 | x6 | x6 | x6 |] %55
V:5
 x3 |: x3 | x6 | x6 | x6 | x6 | x6 | x6 | x6 | x6 | x6 | x6 | x6 | x6 | x6 | x6 | x6 | x6 | x6 | %19
 x6 | x6 | x6 | x6 | x6 | x6 | x6 | x6 | x6 | x6 | x6 | x6 | x6 | x6 | x6 | x6 | x6 | x6 | x6 | %38
 x6 | x6 | x6 | x6 | x6 | x6 | x6 | x3 :| x3 | x6 | x6 | x6 | x6 | x6 | x6 | x3 G,2 F, | %54
[I:staff +1] E, x5 |] %55

